X:61
C:Page 31
T:Soldiers Joy. MBe.61
S:Matthew Betham MS, Towcett Cumbria, 1815
O:England;Cumbria;Towcett
Z:VMP – Hugh Taylor, 2012
M:C|
L:1/8
Q:1/2=100
R:.hornpipe
N:Well known in the district as a tune to play for Westmorland Style step dancing
K:D
FG|AFDF AFDF|A2 d4 cB|AFDF AFDF|G2 E4 FG|
AFDF AFDF|A2 d4 fg|afdf gece|d2 d4:|
|:e2|fefg fagf|edcd efge|fefg fagf|edcB A2 e2|
fefg fagf|edcd efge|afdf gece|d2 d4:|

